X:1
T:Cupido -- Hornpipe
Z:Bob Puckette <bpuckette:msn.com> 2003-3-10
R:hornpipe
B:Cole's 1000 Fiddle Tunes
M:2/4
L:1/16
K:F
(ucB)|AFAc fcAc|Bdgf edcB|Acfe dcBA|.G2.G2 .G2(cB)|
AFAc fcAc|Bdgf edcB|Acfa gbge|f2f2f2:|
|:(uef)|gfed cBAG|AFGA Bcde|fgaf bagf|.e2.c2 .c2(cB)|
AFAc fcAc|Bdgf edcB|Acfa gbge|f2f2f2:|
